X:1
T:Title
%%score ( 1 2 ) { 3 | 4 }
L:1/8
Q:1/4=100
M:4/4
K:A
V:1 treble nm="Grand Piano, Soprano"
V:2 treble 
V:3 bass nm="Choir Pad, All to Thee"
V:4 bass 
V:1
 [Ec]>[DB] [CA]2 [CA]2 [DB]>[FA] | [FA]>[DF] [CE]6 | [B,G]>[CA] [DB]6 | [CA]>[DB] [Ec]6 | %4
w: By~S.~J.~Perry * * * * *||||
 [Ec]>[DB] [CA]2 [CA]2 [DB]>[FA] | [FA]>[DF] [CE]6 | [B,G]>[CA] [DB]4- [DB]>[DE] | %7
w: |||
 [DF]>[DG] [CA]6 | [Ec]>[DB] [CA]6 | [CA]>[EG] [DF]6 | [EG]>[DF] [CE]2 [EA]2 [Ac]2 | %11
w: ||||
 [Ac]2 B->[GB-] [GB-]>[GB-] [GB]2 | z2 A6 | z2 F6 | [EG]>[DF] [CE]2 [EA]2 [Ac]2- | %15
w: ||||
 [Ac][GB] [EA]6- | [EA]2 z2 z4 |] %17
w: ||
V:2
 x8 | x8 | x8 | x8 | x8 | x8 | x8 | x8 | x8 | x8 | x8 | z2 G2 z4 | c>B z2 C>C C2 | %13
 B>A z z/ D/ D>D D2 | x8 | x8 | x8 |] %17
V:3
 A,>A, A,2 A,2 F,>A, | A,>A, A,6 | z4 G,>G, G,2 | z4 A,>A, A,2 | A,>A, A,2 A,2 F,>A, | A,>A, A,6 | %6
 z4 G,>G, G,>G, | B,>B, A,6 | z4 A,>A, A,2 | z2 z z/ A,/ A,>A, A,2 | A,>A, A,2[K:treble] C2 E2 | %11
 E2 E>E E>E E2 | E>D C2[K:bass] A,>A, A,2 | D>C D>A, A,>A, A,2 | A,>A, A,2[K:treble] C2 E2- | %15
 ED C6- | C2 z2 z4 |] %17
V:4
 A,,>A,, A,,2 A,,2 D,>D, | D,>D, A,,6 | z4 E,>E, E,2 | z4 A,,>A,, A,,2 | A,,>A,, A,,2 A,,2 D,>D, | %5
 D,>D, A,,6 | z4 E,>E, E,>E, | E,>E, A,,6 | z4 A,,>A,, A,,2 | z2 z z/ D,/ D,>D, D,2 | %10
 D,>D, A,,2 A,,2 A,2 | A,2 E,>E, E,>E, E,2 | z4 A,,>A,, A,,2 | z2 z z/ D,/ D,>D, D,2 | %14
 D,>D, E,2 E,2 E,2- | E,E, A,,6- | A,,2 z2 z4 |] %17

